X: 26960
T: Miss Chalmer's
R: reel
M: 4/4
K: Eminor
B2 BA BEBe|dBAF DEFA|B2 BA BEBe|dBAF ~E3A:|
(3gab eb gebe|(3fga da fdad|(3gab eb gebe|dBAF ~E4|
(3gab eb gebe|(3fga da fdad|b2ga fgef|dBAF ~E4||

